X:1
T:[ID 8-87a]
T:[ID 8-87a]
T:Bezeichnung standardisiert: Menuett Menuet
T:Urheber unbekannt Datum in der hier transkribierten schriftlichen Quelle: 1792
C:Urheber unbekannt
C:Datum in der hier transkribierten schriftlichen Quelle: 1792
L:1/8
M:3/4
K:D
V:1 treble 
V:1
 d2 d2 (3fed | a2 a2 fd | c2 e2 ge | dcde d2 | d2 d2 (3fed | a2 a2 fd | g2 e2 Tc2 | d6 :: gecAGE | %9
 DFAdfa | gfgfed | aa A4 | d2 d2 (3fed | a2 a2 fd | gfgfed | d6 :| %16

